X: 920
T: Alistair's Frienship
R: jig
M: 6/8
K: Gmajor
|:gfg afd|cBc dBG|gfg afd|cBc d2f|
gfg afd|cBc dBG|EcB AGF|G3 G3:|
|:DGB cBc|dBG AGE|DGB cBc|dgf dcA|
DGB cBc|dBG AGE|dgf dcA|G3 G3:|

